packages/core/src/svgs/tokens/mono/BEETS.svg

<svg width="24" height="24" viewBox="0 0 24 24" fill="none" xmlns="http://www.w3.org/2000/svg">
<path fill-rule="evenodd" clip-rule="evenodd" d="M21.7 6.60665C22.0999 7.00665 22.0999 7.65332 21.7 8.04666L18.4666 11.2799C18.0667 11.68 18.0667 12.32 18.4666 12.72L21.7 15.9533C22.0999 16.3533 22.0999 16.9933 21.7 17.3932L17.3933 21.6999C16.9934 22.1 16.3466 22.1 15.9533 21.6999L12.72 18.4666C12.32 18.0666 11.6799 18.0666 11.28 18.4666L8.04666 21.6999C7.64666 22.1 7.00666 22.1 6.60666 21.6999L2.30001 17.3932C1.9 16.9933 1.9 16.3467 2.30001 15.9533L5.53333 12.72C5.93333 12.32 5.93333 11.68 5.53333 11.2799L2.30001 8.04666C1.9 7.64665 1.9 7.00665 2.30001 6.60665L6.60666 2.3C7.00666 1.9 7.65332 1.9 8.04666 2.3L11.28 5.53332C11.6799 5.93332 12.32 5.93332 12.72 5.53332L15.9533 2.3C16.3533 1.9 16.9934 1.9 17.3933 2.3L21.7 6.60665ZM9.07327 7.50665L9.04668 7.85332L9.21327 8.19999L9.36665 8.15998L9.48659 7.83999L9.2867 7.51998L9.07327 7.50665ZM7.83333 9.16669L7.58666 9.6066L7.51999 9.67333L7.33333 9.3L7.83333 9.16669ZM9.47336 7.34666L9.76659 7.87998L9.83332 8.19332L9.55332 8.48665L8.67333 8.61999L8.60666 8.80666L8.74 9.05998L9.1467 8.95996L9.11325 8.80666L9.26663 8.70665L9.55332 8.98671L9.89336 8.95327L9.95994 8.82665L9.89336 8.69999L9.77327 8.76665L9.67994 8.66666L9.9867 8.08665L9.94672 7.93332L10.0999 7.63999L9.46667 7.33331L9.47336 7.34666ZM8.39333 9.27993L8.55333 9.24664L8.61999 9.31338L9.15339 9.26671V9.13993L8.26666 9.07336L8.16665 9.30669L8.23332 9.37327L8.36667 9.38664L8.39333 9.27324V9.27993ZM8.28666 9.99331L8.38665 9.89998L8.34666 9.59991L8.18666 9.51327H7.99333L7.65999 9.93327L7.72666 10L8.28666 9.99331ZM12.1666 15.1599L12.2267 14.7799L12.4466 14.6133L12.2866 14.4666L12.0733 14.5599L12.0999 14.5932L11.9733 14.5267L11.9333 14.2467L12.0266 14.2134L12.0867 13.96L11.9599 13.8932L11.8067 13.9999L11.74 13.9334L11.7732 13.9066L11.6399 13.7733L11.74 13.68L11.7067 13.5866L12.0467 13.2334L12.2133 13.32L12.28 13.2533V13.1267L12.18 13.0999L12.2466 13.0333L12.2066 12.8134L12.0532 12.8467L11.9067 13.0066L11.8134 12.9132L11.8199 12.7799L11.9666 12.6799L12.1533 12.6267L12.22 12.56L12.2133 12.5399L12.3667 12.7933L12.3933 12.8266L12.5266 12.6933L12.5866 11.86L12.3332 12.06L12.4333 12.3467H12.42L12.1932 12.4666L12.18 12.3999L12.0467 12.2733V11.9533L12.2267 11.6934H12.42L12.6067 11.5599L12.7666 11.5934V11.8466L12.6733 11.8667L12.7066 11.9734L12.86 11.9332L12.96 12.0933L12.6599 12.7933L12.7467 12.76L13.0866 12.4733L13.2199 12.48L13.5733 12.6866L13.6066 13.0333L13.8266 13.0467L13.8533 12.9599L13.98 12.9666L14.0467 13.0266L14.3334 12.9266L14.2932 12.7732L13.1533 12.1533L13.0799 11.78L13.3266 11.2667L13.26 11.08L13.0399 11.06L12.8533 11.18L12.56 10.5133L12.2466 10.7134L11.9599 10.4334L12.1066 10.78L12.08 11.1334L11.8666 11.36L11.2333 11.3732L11.1134 11.5666L11.3066 11.82L11.46 11.8533L11.2067 11.92L10.92 11.64L10.7334 11.7066L10.6133 11.9L10.4266 11.9667L10.3667 11.8399L10.58 11.3667L10.02 11.4333L9.9867 11.34L9.85338 11.3333L9.82663 11.44L9.95325 11.5L10.0466 11.72L10.0133 11.8734L10.08 12.0067L10.1734 12.0266L10.1533 12.5667L10.68 11.9533L11.1467 12.04L11.0799 12.1067V12.1666L10.86 12.1467L10.5534 12.46L10.68 12.7667L10.6532 12.8666L10.4601 13L10.4 13.18L10.6532 13.2399L10.8667 13.0133H10.9332L11.0533 13.1999L11.04 13.42L10.78 13.5533L10.9466 13.64L11.16 13.5467L11.2534 13.7666L11.1 13.9866L11.0732 13.9533L10.9799 13.9866L10.7932 13.92L10.4534 13.84L10.2933 13.9334L10.36 14.0667L10.8267 14.0933L10.9799 13.9933L10.7932 14.26L10.8334 14.6667L10.92 14.7667L11.02 14.6733L11.0333 14.4532L11.1067 14.3867L11.2733 14.48L11.3666 14.3867L11.3266 14.2333L11.42 14.2L11.52 14.2266L11.56 14.5133L11.4666 14.5466L11.3133 14.8333L10.9066 14.9933L10.7867 15.1934L11.1266 15.0933L11.3599 15.3733L11.7333 15.2999L11.7933 15.1666L11.94 15.1333L11.9333 15.2666H12.0666L12.1999 15.1333L12.1666 15.1599ZM12.1466 10.24L11.9266 10.34L11.8866 10.5066L11.7266 10.6067L11.7933 10.92L11.6667 11.0533L11.52 11.02V11.0867L11.3867 11.2133L11.2333 11.2533L11.0732 11.16L11.0067 10.9L10.8399 10.7534L11.1199 10.52H11.6133L11.6799 10.32L11.8134 10.1867L11.7799 10.1534L11.8733 9.99331L12 9.92658L11.9333 9.80664L11.9067 9.83324L10.9 9.72L10.9667 9.64658L11.0933 9.65327L11.18 9.48667L11.0466 9.23995L10.7666 9.33998L10.5534 9.81333L10.58 9.84662L10.7334 9.87991L10.7999 10.0666L10.7133 10.3466L10.4067 10.6134L10.34 10.5466L10.22 10.7266L9.93334 10.7067L9.5933 11.12L9.63327 11.4067L9.5667 11.5333L9.70001 11.9734L9.51334 12.1067L9.3133 11.4733L9.38003 11.2866L9.12663 11.3533L9.0333 11.4534L8.01332 10.3867L8.07332 10.2532L8.19999 10.2666L8.29332 10.1733L8.52 10.14L8.54666 10.1733V10.4933L9.0067 10.4267L8.99332 10.56L8.89999 10.6466L8.74666 10.6866L8.71332 10.8467L8.96672 11.0932L9.12663 11.1267L9.65334 10.8333L9.83332 10.5133L9.79334 10.36L10.36 10.1599L10.1667 10.04L9.75336 10.08L9.5933 9.47329L9.92665 9.1866L9.99338 8.99993L11.2599 9.03991L11.1266 8.9066L10.4933 8.86665L10.4 8.76665L10.96 8.56665L10.86 8.15998L10.9799 7.96666L11.0533 8.21998L11.1866 8.34665H11.2467L11.3999 8.24666L11.5866 8.31331L11.46 8.50665L11.6332 8.65998L11.5933 9.13993L11.9199 9.51327L12.1066 9.76667L12.2667 9.66664L12.4266 9.75998L12.1733 9.82671L12.26 9.98662L12.1466 10.24ZM16.2599 11.4199L16.3533 11.2667L16.5734 11.2267L16.6667 11.1334L16.0733 11.1133L15.8133 10.5399L15.6999 11.3067L15.5666 11.44L15.4333 10.7467L15.62 10.3666L15.5867 10.14L15.1399 9.70662L14.54 9.87338L14.5466 10.32L14.4267 10.5066L14.2267 9.93995L13.7533 9.72669L13.4066 9.19329L13.4999 9.09327L13.4666 8.99993L13.56 8.83999L13.8933 8.79998L13.8667 8.95996L14 9.09327L14.1532 9.05329L14.0867 8.60666L14.42 8.57332L14.3866 8.34665L14.2999 8.24666L14.3066 8.11332L14.1333 8.02666L14.04 8.19332L13.9199 8.25331L13.52 8.48665L13.3666 8.89338L13.0533 9.09327L13.1466 9.19329L13.2134 9.44669L13.1866 9.47329L13.02 9.37995L12.4 9.58L12.5266 9.76667L13.4066 9.69324L13.7267 9.93327L13.8 10.3133L14.0199 10.4734L13.9534 10.5399L14.2133 10.8467L14.4933 10.94L14.68 10.8733L14.7067 10.7134L14.74 10.6866L15.2533 10.9133L15.3199 11.1866L15.0667 11.3866L14.9334 11.2533L14.9466 11.12L14.8133 11.06L14.7 11.9466L14.9533 12.1933L15.02 12.1266L15.0734 12.1333L15.4733 11.7733L15.7334 11.8334L16.14 11.6733L16.2333 11.7666H16.2999L16.36 11.5733L16.2599 11.4199ZM8.99332 13.8867L9.40663 14.16L9.45998 14.1667L9.49327 14.1266L9.87998 14.6267L9.97332 14.66L10.0667 14.6267L9.7067 13.7133L9.77327 13.5266L9.55332 13.3667L9.33336 13.5933L9.45998 13.6599L9.58661 13.5933L9.61336 13.6266L9.35996 13.7599L9.33336 13.7266L9.26663 13.7934L9.27332 13.7266L9.24672 13.7599L9.08665 13.7266L8.99332 13.6333L9.01992 13.5333L8.92005 13.5067L8.83333 13.54L8.70666 13.98L8.86665 14.0133L9.00001 13.88L8.99332 13.8867ZM9.8467 13.82L10.2267 13.6333L10.3467 13.3799L10.1533 13.2533L9.90005 13.4466L9.8467 13.8267V13.82ZM13.3934 10.2867L13.24 10.32L13.1466 10.4133L13.02 10.36L12.8999 10.42L12.7733 10.74L12.8999 10.8067L13.0332 10.6732L13.5066 10.94L13.4733 10.34L13.56 10.3066L13.5733 10.1733L13.4666 10.1467L13.4 10.28L13.3934 10.2867ZM11.5133 11.9866L11.6466 12.2467L11.5133 12.3133L11.2333 12.2867L11.5133 11.9866ZM16.6134 9.99331L16.46 9.98662L16.14 9.75329L16.1067 9.40671L15.9134 9.15331L15.9732 8.77332L15.5666 8.87331L15.6066 9.28662H15.7933L15.8933 9.44L15.6133 9.73338L15.6466 10.0733L15.8133 10.1666L15.9067 10.0733L15.8466 9.95333L15.9466 9.86L16.0733 9.86669L16.5466 10.1934L16.7067 10.0933L17.02 10.28L17.3266 9.63335L16.6134 9.99331ZM14.08 12.3266L14.3066 12.4333L14.4667 12.6533L14.7266 12.7134L14.88 12.6133L14.9466 12.8666L15.0133 12.8733L15.0466 12.8333V12.7067L14.9466 12.5466L14.98 12.52L14.6933 12.4267L14.6333 12.3066L14.4466 12.3L14.1266 12.1733L13.9933 11.9866V11.6066L13.7466 11.3533L13.6533 11.5199L13.5867 11.4534H13.5334L13.4999 11.62L13.3666 11.6066L13.3132 11.9933L13.5334 12.0933L13.6933 11.9933L13.66 11.9L13.7533 11.8066L14.0199 12.3066L13.76 12.2534L13.9199 12.5334L14.0467 12.4666L14.0733 12.32L14.08 12.3266ZM16.9467 8.39999L16.7933 8.31331L16.2934 8.69999L16.6134 8.87998L16.9266 8.67999L16.9467 8.39999ZM12.1733 13.84L11.9333 13.7867L12.5067 13.4933L12.54 13.3399L12.6067 13.2733L12.5666 12.9867L12.7599 13.1733L13.7399 13.3866L13.5267 13.4799L13.52 13.54L13.0866 13.8599L13.1799 13.5733L12.68 13.7733L12.6467 13.74L12.4333 13.8333L13.2666 14.8333L12.8533 14.7466L12.72 14.3666L12.6266 14.34L12.5266 14.1799L12.46 14.2467L12.3667 14.2199L12.1733 13.84ZM17.12 9.02L17.3333 8.53331L17.12 8.43332L17.0533 8.49998L17.02 8.98002L17.12 9.02ZM17.0999 9.42662L17.1667 9.23995L16.9066 9.1866L16.4399 9.35336L16.5066 9.53333L16.8266 9.65995L17.0999 9.42662ZM13.7267 14.4934L13.9467 14.2134L13.44 13.8466V14.0933L13.7267 14.12L13.7533 14.16L13.7267 14.4934ZM14.9267 13.6266L14.4799 13.32L14.22 13.46L14.2867 13.6467L14.92 13.6933L14.9267 13.6266ZM14.4866 14.5932L14.7 14.1799L14.4399 13.74H14.1934L14.0666 13.9334L14.42 14.2799L14.4866 14.5932ZM13.3534 16.2933L13.2266 16.0999L13.4733 15.8467L13.5334 15.5933L12.9066 15.7266L12.8932 15.8599L13.1067 16.2399L13.3534 16.2933ZM15.1533 13.5666L15.26 14.4199L15.48 14.3867L15.6666 14.0066L15.4 13.6266L15.1533 13.5666ZM16.1534 15.42L16.22 15.2333L16.1534 15.1066L16 15.1467L15.8799 15.0867L16.28 14.3534L16.2133 14.1667L16.46 13.7867L15.6932 13.3466L15.76 13.6599L15.92 13.8133L16.0866 14.4199L14.9932 15.0467L14.5799 14.9533L14.6866 15.4933L15.1866 15.42L15.1533 15.1934L15.4 15.0599L15.6932 15.4667L16.1599 15.4332L16.1534 15.42ZM15.1533 15.7534L15.16 15.6199L14.8934 15.5533L14.6467 15.6866L14.0534 15.5399L13.96 15.6333L14.0266 15.8867L14.1599 15.8999L15.16 15.7467H15.1533V15.7534ZM14.1733 16.5333L14.0867 16.1466L13.9 16.0133L13.7066 16.0267L13.6466 16.2133L13.62 16.1799L13.4333 16.3799L13.2866 16.4132L13.2199 16.5467L13.3199 16.64L14.0733 16.6267L14.1733 16.5333ZM14.84 16.3067L14.8467 15.9999L14.6333 16.0933L14.3466 16.4467L14.3533 16.6333L14.5134 16.6666L14.8467 16.3067H14.84Z" fill="white"/>
</svg>

<svg xmlns="http://www.w3.org/2000/svg" width="24" height="24" fill="none" viewBox="0 0 24 24">
    <path fill="#fff" fill-rule="evenodd" d="M21.7 6.607c.4.4.4 1.046 0 1.44l-3.233 3.233c-.4.4-.4 1.04 0 1.44l3.233 3.233c.4.4.4 1.04 0 1.44L17.393 21.7c-.4.4-1.046.4-1.44 0l-3.233-3.233c-.4-.4-1.04-.4-1.44 0L8.047 21.7c-.4.4-1.04.4-1.44 0L2.3 17.393c-.4-.4-.4-1.046 0-1.44l3.233-3.233c.4-.4.4-1.04 0-1.44L2.3 8.047c-.4-.4-.4-1.04 0-1.44L6.607 2.3c.4-.4 1.046-.4 1.44 0l3.233 3.233c.4.4 1.04.4 1.44 0L15.953 2.3c.4-.4 1.04-.4 1.44 0zm-12.627.9-.026.346.166.347.154-.04.12-.32-.2-.32zm-1.24 1.66-.246.44-.067.066-.187-.373zm1.64-1.82.294.533.066.313-.28.294-.88.133-.066.187.133.253.407-.1-.034-.153.154-.1.286.28.34-.034.067-.126-.067-.127-.12.067-.093-.1.307-.58-.04-.154.153-.293-.633-.307zM8.393 9.28l.16-.033.067.066.533-.046V9.14l-.886-.067-.1.234.066.066.134.014.026-.114zm-.106.713.1-.093-.04-.3-.16-.087h-.194l-.333.42.067.067zm3.88 5.167.06-.38.22-.167-.16-.146-.214.093.027.033-.127-.066-.04-.28.094-.034.06-.253-.127-.067-.153.107-.067-.067.033-.026-.133-.134.1-.093-.033-.093.34-.354.166.087.067-.067v-.126l-.1-.027.067-.067-.04-.22-.154.034-.146.16-.094-.094.007-.133.147-.1.186-.053.067-.067-.007-.02.154.253.026.034.134-.134.06-.833-.254.2.1.287h-.013l-.227.12-.013-.067-.133-.127v-.32l.18-.26h.193l.187-.133.16.033v.254l-.094.02.034.106.153-.04.1.16-.3.7.087-.033.34-.287.133.007.353.207.034.346.22.014.026-.087.127.007.067.06.286-.1-.04-.154-1.14-.62-.073-.373.247-.513-.067-.187-.22-.02-.187.12-.293-.667-.313.2-.287-.28.147.347-.027.353-.213.227-.634.013-.12.194.194.253.153.033-.253.067-.287-.28-.187.067-.12.193-.186.067-.06-.127.213-.473-.56.066-.033-.093-.134-.007-.026.107.126.06.094.22-.034.153.067.134.093.02-.02.54.527-.614.467.087-.067.067v.06l-.22-.02-.307.313.127.307-.027.1-.193.133-.06.18.253.06.214-.227h.066l.12.187-.013.22-.26.133.167.087.213-.093.093.22-.153.22-.027-.034-.093.034-.187-.067-.34-.08-.16.093.067.134.467.026.153-.1-.187.267.04.407.087.1.1-.094.013-.22.074-.066.166.093.094-.093-.04-.154.093-.033.1.027.04.286-.093.034-.154.286-.406.16-.12.2.34-.1.233.28.373-.073.06-.133.147-.034-.007.134h.134l.133-.134zm-.02-4.92-.22.1-.04.167-.16.1.066.313-.126.133-.147-.033v.067l-.133.126-.154.04-.16-.093-.066-.26-.167-.147.28-.233h.493l.067-.2.133-.133-.033-.034.093-.16.127-.066-.067-.12-.026.026L10.9 9.72l.067-.073.126.006.087-.166-.133-.247-.28.1-.214.473.027.034.153.033.067.187-.087.28-.306.266-.067-.066-.12.18-.287-.02-.34.413.04.287-.066.126.133.44-.187.134-.2-.634.067-.186-.253.066-.094.1-1.02-1.066.06-.134.127.014.093-.094.227-.033.027.033v.32l.46-.066-.014.133-.093.087-.153.04-.034.16.254.246.16.034.526-.294.18-.32-.04-.153.567-.2-.193-.12-.414.04-.16-.607.334-.286L9.993 9l1.267.04-.133-.133-.634-.04-.093-.1.56-.2-.1-.407.12-.193.073.253.134.127h.06l.153-.1.187.066-.127.194.173.153-.04.48.327.373.187.254.16-.1.16.093-.254.067.087.16zm4.113 1.18.093-.153.22-.04.094-.094-.594-.02-.26-.573-.113.767-.133.133-.134-.693.187-.38-.033-.227-.447-.433-.6.166.007.447-.12.187-.2-.567-.474-.213-.346-.534.093-.1L13.467 9l.093-.16.333-.04-.026.16.133.133.153-.04-.066-.446.333-.034-.033-.226-.087-.1.007-.134-.174-.086-.093.166-.12.06-.4.234-.153.406-.314.2.094.1.066.254-.026.026-.167-.093-.62.2.127.187.88-.074.32.24.073.38.22.16-.067.067.26.307.28.093.187-.067.027-.16.033-.026.513.226.067.274-.253.2-.134-.134.014-.133-.134-.06-.113.887.253.246.067-.066.053.006.4-.36.26.06.407-.16.093.094h.067l.06-.194zm-7.267 2.467.414.273.053.007.033-.04.387.5.093.033.094-.033-.36-.914.066-.186-.22-.16-.22.226.127.067.127-.067.026.034-.253.133-.027-.033-.066.066.006-.066-.026.033-.16-.033-.094-.094.027-.1-.1-.026-.087.033-.126.44.16.033L9 13.88zm.854-.067.38-.187.12-.253-.194-.127-.253.194-.053.38zm3.546-3.533-.153.033-.093.093-.127-.053-.12.06-.127.32.127.067.133-.134.474.267-.034-.6.087-.033.013-.134-.106-.026-.067.133zm-1.88 1.7.134.26-.134.066-.28-.026zm5.1-1.994-.153-.006-.32-.234-.033-.346-.194-.254.06-.38-.406.1.04.414h.186l.1.153-.28.293.034.34.166.094.094-.094-.06-.12.1-.093.126.007.474.326.16-.1.313.187.307-.647zm-2.533 2.334.227.106.16.22.26.06.153-.1.067.254.066.006.034-.04v-.126l-.1-.16.033-.027-.287-.093-.06-.12-.186-.007-.32-.127-.134-.186v-.38l-.246-.254-.094.167-.066-.067h-.054l-.033.167-.133-.013-.054.386.22.1.16-.1-.033-.093.093-.093.267.5-.26-.054.16.28.127-.066.026-.147zM16.947 8.4l-.154-.087-.5.387.32.18.314-.2zm-4.774 5.44-.24-.053.574-.294.033-.153.067-.067-.04-.286.193.186.98.214-.213.093-.007.06-.433.32.093-.287-.5.2-.033-.033-.214.093.834 1-.414-.086-.133-.38-.093-.027-.1-.16-.067.067-.093-.027zm4.947-4.82.213-.487-.213-.1-.067.067-.033.48zm-.02.407.067-.187-.26-.053-.467.166.067.18.32.127zm-3.373 5.066.22-.28-.507-.366v.246l.287.027.026.04zm1.2-.866-.447-.307-.26.14.067.187.633.046zm-.44.966.213-.413-.26-.44h-.247l-.126.193.353.347zm-1.134 1.7-.126-.193.246-.253.06-.254-.626.134-.014.133.214.38zm1.8-2.726.107.853.22-.033.187-.38-.267-.38zm1 1.853.067-.187-.067-.126-.153.04-.12-.06.4-.734-.067-.186.247-.38-.767-.44.067.313.16.153.167.607-1.094.627-.413-.094.107.54.5-.073-.034-.227.247-.133.293.407.467-.034zm-1 .333.007-.133-.267-.067-.246.134-.594-.147-.093.093.067.254.133.013 1-.153h-.007zm-.98.78-.086-.386-.187-.134-.193.014-.06.186-.027-.033-.187.2-.146.033-.067.134.1.093.753-.013zm.667-.226.007-.307-.214.093-.286.354.006.186.16.034.334-.36z" clip-rule="evenodd"/>
</svg>
